www/assets/icons/no_adult_content.svg

<svg xmlns="http://www.w3.org/2000/svg" width="24" height="24" viewBox="0 0 24 24" fill='currentColor'><path d="M12 2C6.48 2 2 6.48 2 12s4.48 10 10 10 10-4.48 10-10S17.52 2 12 2M4 12c0-1.85.63-3.54 1.69-4.9L7.59 9h2.83L7.1 5.69A7.92 7.92 0 0 1 12 4c4.41 0 8 3.59 8 8 0 1.85-.63 3.54-1.69 4.9l-1.9-1.9h-2.83l3.31 3.31A7.87 7.87 0 0 1 12 20c-4.41 0-8-3.59-8-8"/><path d="m14.25 14-1.5-2 1.5-2h-1.5L12 11l-.75-1h-1.5l1.5 2-1.5 2h1.5l.75-1 .75 1zM8 10l-.75 1-.75-1H5l1.5 2L5 14h1.5l.75-1L8 14h1.5L8 12l1.5-2zm8 4 .75-1 .75 1H19l-1.5-2 1.5-2h-1.5l-.75 1-.75-1h-1.5l1.5 2-1.5 2z"/></svg>

<svg width="24" height="24" viewBox="0 0 24 24" xmlns="http://www.w3.org/2000/svg" fill='currentColor'><path d="M12 2C6.48 2 2 6.48 2 12C2 17.52 6.48 22 12 22C17.52 22 22 17.52 22 12C22 6.48 17.52 2 12 2ZM4 12C4 10.15 4.63 8.46 5.69 7.1L7.59 9H10.42L7.1 5.69C8.46 4.63 10.15 4 12 4C16.41 4 20 7.59 20 12C20 13.85 19.37 15.54 18.31 16.9L16.41 15H13.58L16.89 18.31C15.54 19.37 13.85 20 12 20C7.59 20 4 16.41 4 12Z"/><path d="M14.25 14L12.75 12L14.25 10H12.75L12 11L11.25 10H9.75L11.25 12L9.75 14H11.25L12 13L12.75 14H14.25Z"/><path d="M8 10L7.25 11L6.5 10H5L6.5 12L5 14H6.5L7.25 13L8 14H9.5L8 12L9.5 10H8Z"/><path d="M16 14L16.75 13L17.5 14H19L17.5 12L19 10H17.5L16.75 11L16 10H14.5L16 12L14.5 14H16Z"/></svg>
